src/assets/images/realtime/realtimekit/web/components-gallery/rtk-participant-count.svg

<svg xmlns="http://www.w3.org/2000/svg" xmlns:xlink="http://www.w3.org/1999/xlink" width="400" height="300" fill="none" viewBox="0 0 400 300"><g clip-path="url(#clip0_9781_45481)"><path fill="#fff" d="M0 0h400v300H0z"/><path fill="url(#pattern0_9781_45481)" d="M0 4.21A4.21 4.21 0 0 1 4.21 0h391.58A4.21 4.21 0 0 1 400 4.21v291.58a4.21 4.21 0 0 1-4.211 4.211H4.211A4.21 4.21 0 0 1 0 295.789z" style="mix-blend-mode:darken"/><path fill="#262626" d="M0 104.17h336.422a9.58 9.58 0 0 1 9.578 9.578v203.529H0z"/><path fill="#262626" d="M153 108.789a4.79 4.79 0 0 1 4.789-4.789h178.633a9.58 9.58 0 0 1 9.578 9.578v52.633a4.79 4.79 0 0 1-4.789 4.789H157.789a4.79 4.79 0 0 1-4.789-4.789z"/><path fill="#ddd" d="M181.578 132.555a4.789 4.789 0 1 0 0-9.578 4.789 4.789 0 0 0 0 9.578m0-2.394a2.395 2.395 0 1 1 0-4.79 2.395 2.395 0 0 1 0 4.79m-10.775 2.394a3.592 3.592 0 1 0 0-7.185 3.592 3.592 0 0 0 0 7.185m0-2.394a1.197 1.197 0 1 1 0-2.395 1.197 1.197 0 0 1 0 2.395m25.142-1.198a3.592 3.592 0 1 1-7.184 0 3.592 3.592 0 0 1 7.184 0m-2.395 0a1.197 1.197 0 1 0-2.394 0 1.197 1.197 0 0 0 2.394 0m-17.992 6.288a2.3 2.3 0 0 1 1.139-.301h9.762a2.3 2.3 0 0 1 1.287.393 2.3 2.3 0 0 1 1.015 1.909v7.275a7.2 7.2 0 0 1-.661 3.016 7.185 7.185 0 0 1-13.705-3.016v-7.275a2.3 2.3 0 0 1 1.163-2.001m1.231 9.276a4.789 4.789 0 1 0 9.578 0v-7.183h-9.578zm-4.19-7.275c0-.854.261-1.646.707-2.302h-6.095a2.394 2.394 0 0 0-2.394 2.394v5.986a5.986 5.986 0 0 0 8.772 5.3 9 9 0 0 1-.809-2.3 3.592 3.592 0 0 1-5.569-3v-5.986h5.388zm19.754 12.064a5.96 5.96 0 0 1-2.786-.686 9 9 0 0 0 .809-2.3 3.592 3.592 0 0 0 5.569-3v-5.986h-5.388v-.092a4.1 4.1 0 0 0-.707-2.302h6.095a2.394 2.394 0 0 1 2.394 2.394v5.986a5.986 5.986 0 0 1-5.986 5.986"/><path fill="#fff" fill-opacity=".88" d="M207.508 144v-1.144l4.296-4.702q.756-.825 1.245-1.436.49-.615.724-1.156a2.8 2.8 0 0 0 .242-1.144q0-.685-.331-1.188a2.14 2.14 0 0 0-.889-.775 2.9 2.9 0 0 0-1.271-.273q-.75 0-1.309.311a2.15 2.15 0 0 0-.858.858q-.298.552-.298 1.296h-1.5q0-1.144.528-2.008a3.66 3.66 0 0 1 1.436-1.347q.915-.483 2.052-.483 1.143 0 2.027.483a3.63 3.63 0 0 1 1.385 1.303q.502.82.502 1.823 0 .718-.261 1.405-.254.68-.889 1.518-.63.833-1.748 2.033l-2.922 3.126v.102h6.049V144zm10.249-2.669v-1.296l5.719-9.048h.94v2.008h-.635l-4.321 6.837v.101h7.701v1.398zm6.125 2.669v-13.013h1.5V144z"/><path fill="#474747" d="M263 136.183a7.183 7.183 0 0 1 7.183-7.183h42.239a9.58 9.58 0 0 1 9.578 9.578v.239a7.183 7.183 0 0 1-7.183 7.183h-44.634a7.183 7.183 0 0 1-7.183-7.183z"/><rect width="147.26" height="86.201" x="126" y="91" stroke="#e7883b" stroke-dasharray="7.18 7.18" stroke-linecap="round" stroke-width="2.394" rx="9.578"/></g><defs><clipPath id="clip0_9781_45481"><path fill="#fff" d="M0 0h400v300H0z"/></clipPath><pattern id="pattern0_9781_45481" width=".037" height=".049" patternContentUnits="objectBoundingBox"><use xlink:href="#image0_9781_45481" transform="scale(.00066 .00088)"/></pattern><image xlink:href="data:image/png;base64,iVBORw0KGgoAAAANSUhEUgAAADgAAAA4CAYAAACohjseAAAACXBIWXMAACxLAAAsSwGlPZapAAAAAXNSR0IArs4c6QAAAARnQU1BAACxjwv8YQUAAADdSURBVHgB7dmxDoMgFIXhCzEmbsbF9388F8PGAKHt6dSksvXaHHK+EQbzB0Sj4fFiA4s2OAWyUyA7BbJTIDsFslMgOwWyUyA7BbJTIDsFspvsBrVWO8/TSinWWrNlWWxdV5sm/8sH7w+/iDuO4x32KcZo+767R7pv0ZTSVxxgDKvqzT0w59ydw5b15h4YQujOXa3sr7kHzvPcncNh4809cNu2y1XEGE5Sb+GO32c4SXHY4H5EGFYV4UM8Jv5Nr2rsFMhOgewUyE6B7BTIToHsFMhOgewUyE6B7IYPfALcB0NZ5j6jXgAAAABJRU5ErkJggg==" id="image0_9781_45481" width="56" height="56" preserveAspectRatio="none"/></defs></svg>

<svg width="400" height="300" viewBox="0 0 400 300" fill="none" xmlns="http://www.w3.org/2000/svg" xmlns:xlink="http://www.w3.org/1999/xlink">
<g clip-path="url(#clip0_9781_45481)">
<rect width="400" height="300" fill="white"/>
<g style="mix-blend-mode:darken">
<path d="M0 4.21053C0 1.88512 1.88512 0 4.21053 0H395.789C398.115 0 400 1.88512 400 4.21053V295.789C400 298.115 398.115 300 395.789 300H4.21054C1.88513 300 0 298.115 0 295.789V4.21053Z" fill="url(#pattern0_9781_45481)"/>
</g>
<path d="M0 104.17H336.422C341.712 104.17 346 108.458 346 113.748V317.277H0V104.17Z" fill="#262626"/>
<path d="M153 108.789C153 106.144 155.144 104 157.789 104H336.422C341.712 104 346 108.288 346 113.578V166.211C346 168.856 343.856 171 341.211 171H157.789C155.144 171 153 168.856 153 166.211V108.789Z" fill="#262626"/>
<path d="M181.578 132.555C184.223 132.555 186.367 130.411 186.367 127.766C186.367 125.121 184.223 122.977 181.578 122.977C178.933 122.977 176.789 125.121 176.789 127.766C176.789 130.411 178.933 132.555 181.578 132.555ZM181.578 130.161C180.255 130.161 179.183 129.089 179.183 127.766C179.183 126.444 180.255 125.372 181.578 125.372C182.9 125.372 183.972 126.444 183.972 127.766C183.972 129.089 182.9 130.161 181.578 130.161ZM170.803 132.555C172.786 132.555 174.395 130.947 174.395 128.963C174.395 126.98 172.786 125.372 170.803 125.372C168.819 125.372 167.211 126.98 167.211 128.963C167.211 130.947 168.819 132.555 170.803 132.555ZM170.803 130.161C170.142 130.161 169.606 129.625 169.606 128.963C169.606 128.302 170.142 127.766 170.803 127.766C171.464 127.766 172 128.302 172 128.963C172 129.625 171.464 130.161 170.803 130.161ZM195.945 128.963C195.945 130.947 194.337 132.555 192.353 132.555C190.369 132.555 188.761 130.947 188.761 128.963C188.761 126.98 190.369 125.372 192.353 125.372C194.337 125.372 195.945 126.98 195.945 128.963ZM193.55 128.963C193.55 128.302 193.014 127.766 192.353 127.766C191.692 127.766 191.156 128.302 191.156 128.963C191.156 129.625 191.692 130.161 192.353 130.161C193.014 130.161 193.55 129.625 193.55 128.963ZM175.558 135.251C175.894 135.059 176.282 134.95 176.697 134.95H186.459C186.873 134.95 187.262 135.059 187.598 135.251C187.649 135.28 187.698 135.31 187.746 135.343C188.359 135.757 188.761 136.457 188.761 137.252V144.527C188.761 145.604 188.524 146.626 188.1 147.543C186.96 150.004 184.468 151.711 181.578 151.711C178.687 151.711 176.196 150.004 175.056 147.543C175.023 147.47 174.99 147.397 174.959 147.324C174.596 146.464 174.395 145.519 174.395 144.527V137.252C174.395 136.395 174.863 135.647 175.558 135.251ZM176.789 144.527C176.789 147.172 178.933 149.316 181.578 149.316C184.223 149.316 186.367 147.172 186.367 144.527V137.344H176.789V144.527ZM172.599 137.252C172.599 136.398 172.86 135.606 173.306 134.95H167.211C165.889 134.95 164.817 136.022 164.817 137.344V143.33C164.817 146.636 167.497 149.316 170.803 149.316C171.809 149.316 172.756 149.068 173.589 148.63C173.22 147.914 172.945 147.142 172.78 146.33C172.213 146.704 171.533 146.922 170.803 146.922C168.819 146.922 167.211 145.314 167.211 143.33V137.344H172.599V137.252ZM192.353 149.316C191.347 149.316 190.399 149.068 189.567 148.63C189.936 147.914 190.211 147.142 190.376 146.33C190.943 146.704 191.623 146.922 192.353 146.922C194.337 146.922 195.945 145.314 195.945 143.33V137.344H190.557V137.252C190.557 136.398 190.296 135.606 189.85 134.95H195.945C197.267 134.95 198.339 136.022 198.339 137.344V143.33C198.339 146.636 195.659 149.316 192.353 149.316Z" fill="#DDDDDD"/>
<path d="M207.508 144V142.856L211.804 138.154C212.308 137.604 212.723 137.125 213.049 136.718C213.375 136.308 213.617 135.922 213.773 135.562C213.934 135.198 214.015 134.816 214.015 134.418C214.015 133.961 213.905 133.565 213.684 133.23C213.468 132.895 213.172 132.637 212.795 132.455C212.418 132.273 211.994 132.182 211.524 132.182C211.024 132.182 210.588 132.285 210.215 132.493C209.847 132.696 209.561 132.982 209.357 133.351C209.158 133.719 209.059 134.151 209.059 134.647H207.559C207.559 133.885 207.735 133.215 208.087 132.639C208.438 132.063 208.917 131.614 209.523 131.292C210.133 130.97 210.817 130.809 211.575 130.809C212.337 130.809 213.013 130.97 213.602 131.292C214.191 131.614 214.652 132.048 214.987 132.595C215.322 133.141 215.489 133.749 215.489 134.418C215.489 134.897 215.402 135.365 215.228 135.823C215.059 136.276 214.762 136.782 214.339 137.341C213.919 137.896 213.337 138.574 212.591 139.374L209.669 142.5V142.602H215.718V144H207.508ZM217.757 141.331V140.035L223.476 130.987H224.416V132.995H223.781L219.46 139.832V139.933H227.161V141.331H217.757ZM223.882 144V140.937V140.334V130.987H225.382V144H223.882Z" fill="white" fill-opacity="0.88"/>
<path d="M263 136.183C263 132.216 266.216 129 270.183 129H312.422C317.712 129 322 133.288 322 138.578V138.817C322 142.784 318.784 146 314.817 146H270.183C266.216 146 263 142.784 263 138.817V136.183Z" fill="#474747"/>
<rect x="126" y="91" width="147.26" height="86.2007" rx="9.57785" stroke="#E7883B" stroke-width="2.39446" stroke-linecap="round" stroke-dasharray="7.18 7.18"/>
</g>
<defs>
<pattern id="pattern0_9781_45481" patternContentUnits="objectBoundingBox" width="0.0368421" height="0.0491228">
<use xlink:href="#image0_9781_45481" transform="scale(0.000657895 0.000877193)"/>
</pattern>
<clipPath id="clip0_9781_45481">
<rect width="400" height="300" fill="white"/>
</clipPath>
<image id="image0_9781_45481" width="56" height="56" preserveAspectRatio="none" xlink:href="data:image/png;base64,iVBORw0KGgoAAAANSUhEUgAAADgAAAA4CAYAAACohjseAAAACXBIWXMAACxLAAAsSwGlPZapAAAAAXNSR0IArs4c6QAAAARnQU1BAACxjwv8YQUAAADdSURBVHgB7dmxDoMgFIXhCzEmbsbF9388F8PGAKHt6dSksvXaHHK+EQbzB0Sj4fFiA4s2OAWyUyA7BbJTIDsFslMgOwWyUyA7BbJTIDsFspvsBrVWO8/TSinWWrNlWWxdV5sm/8sH7w+/iDuO4x32KcZo+767R7pv0ZTSVxxgDKvqzT0w59ydw5b15h4YQujOXa3sr7kHzvPcncNh4809cNu2y1XEGE5Sb+GO32c4SXHY4H5EGFYV4UM8Jv5Nr2rsFMhOgewUyE6B7BTIToHsFMhOgewUyE6B7IYPfALcB0NZ5j6jXgAAAABJRU5ErkJggg=="/>
</defs>
</svg>
